X: 2293
T: PADDY ON THE RAILROAD
R: Irish Reel.
%R: reel
B: James Kerr "Merry Melodies" v.2 p.32 #293
Z: 2016 John Chambers <jc:trillian.mit.edu>
M: C
L: 1/8
K: D
(fe) |\
d2(dA) BAFA | d2(dA) BAFA |\
ABde f2(ed) | Bee^d egfe |\
d2(dA) BAFA | ABcA BAFA |\
ABde fgec | ddAF D2 :|
|: (fg) |\
a2ag f2fe | d2(dA) BAFA |\
ABde f2(ed) | Bee^d efge |\
abag fgfe | d2(dA) BAFA |\
ABde fgec | ddAF D2 :|
